Breeze Round Light/actions/32/mail-thread-watch.svg

<svg xmlns="http://www.w3.org/2000/svg" viewBox="0 0 32 32">
  <defs id="defs3051">
    <style type="text/css" id="current-color-scheme">
      .ColorScheme-Text {
        color:#232629;
      }
      </style>
  </defs>
 <path 
     style="fill:currentColor;fill-opacity:1;stroke:none" 
     d="M 2 5 L 2 24.683594 L 2 27 L 19 27 L 19 26 L 3 26 L 3 25.111328 L 3.4296875 24.683594 L 12.785156 15.541016 L 16 18.683594 L 28.976562 6 L 29 6 L 29 16 L 30 16 L 30 5 L 2 5 z M 3 6 L 3.0234375 6 L 12.070312 14.841797 L 3 23.707031 L 3 6 z M 4.453125 6 L 27.546875 6 L 16 17.285156 L 4.453125 6 z M 24 18 A 8.9999925 9.0000023 0 0 0 16.123047 22.667969 C 16.251996 23.031718 16.480486 23.344572 16.779297 23.576172 A 7.9999935 8.0000021 0 0 1 24 19 A 3.9999996 4.0000004 0 0 0 20 23 A 3.9999996 4.0000004 0 0 0 24 27 A 3.9999996 4.0000004 0 0 0 28 23 A 3.9999996 4.0000004 0 0 0 24.349609 19.017578 A 7.9999935 8.0000021 0 0 1 31.220703 23.576172 C 31.522218 23.342472 31.752612 23.026077 31.880859 22.658203 A 8.9999925 9.0000023 0 0 0 24 18 z M 24 20 A 2.9999996 3.0000002 0 0 1 27 23 A 2.9999996 3.0000002 0 0 1 24 26 A 2.9999996 3.0000002 0 0 1 21 23 A 2.9999996 3.0000002 0 0 1 24 20 z M 24 21 A 1.9999999 2.0000003 0 0 0 22 23 A 1.9999999 2.0000003 0 0 0 24 25 A 1.9999999 2.0000003 0 0 0 26 23 A 1.9999999 2.0000003 0 0 0 25.910156 22.412109 A 0.9999999 1 0 0 1 25 23 A 0.9999999 1 0 0 1 24 22 A 0.9999999 1 0 0 1 24.589844 21.089844 A 1.9999999 2.0000003 0 0 0 24 21 z "
     class="ColorScheme-Text"
     />
</svg>

<svg xmlns="http://www.w3.org/2000/svg" viewBox="0 0 32 32">
  <defs id="defs3051">
<style type="text/css" id="current-color-scheme">.ColorScheme-Text {color:#fcfcfc;}</style>
  </defs>
 <path 
     style="fill:currentColor;fill-opacity:1;stroke:none" 
     d="m 2,8 v 16 c 0,0 0,3 3,3 H 19 V 26 H 5 C 4,26 3.4296875,24.683594 3.4296875,24.683594 L 12.785156,15.541016 16,18.683594 28.233321,6.6864465 C 28.233321,6.6864465 29,7 29,8 c 0,1 0,8 0,8 h 1 c 0,0 0,-5 0,-8 C 30,5 27,5 27,5 H 5 C 5,5 2,5 2,8 Z M 3.7718199,6.6813051 C 6.766618,9.657518 9.0422258,11.899453 12.070312,14.841797 L 3,23.707031 V 8 C 3,7 3.7718199,6.6813051 3.7718199,6.6813051 Z M 4.453125,6 h 23.09375 L 16,17.285156 Z M 24,18 c -3.280105,0.0043 -6.298119,1.792833 -7.876953,4.667969 0.128949,0.363747 0.357439,0.676603 0.65625,0.908203 C 18.101085,20.784863 20.911554,19.003708 24,19 c -2.209137,0 -4,1.790863 -4,4 0,2.209137 1.790863,4 4,4 2.209137,0 4,-1.790863 4,-4 -0.0012,-2.072767 -1.585556,-3.801258 -3.650391,-3.982422 2.957377,0.131216 5.60056,1.884823 6.871094,4.558594 0.301515,-0.2337 0.531911,-0.550095 0.660156,-0.917969 C 30.298787,19.785613 27.279437,18.000942 24,18 Z m 0,2 c 1.656852,0 3,1.343148 3,3 0,1.656852 -1.343148,3 -3,3 -1.656852,0 -3,-1.343148 -3,-3 0,-1.656852 1.343148,-3 3,-3 z m 0,1 c -1.104568,0 -2,0.895431 -2,2 0,1.104569 0.895432,2 2,2 1.104568,0 2,-0.895431 2,-2 -4.82e-4,-0.199346 -0.03076,-0.3975 -0.08984,-0.587891 C 25.748415,22.769696 25.392463,22.999616 25,23 c -0.552284,0 -1,-0.447716 -1,-1 7.31e-4,-0.392919 0.231494,-0.748998 0.589844,-0.910156 C 24.398828,21.030572 24.200001,21.000287 24,21 Z"
     class="ColorScheme-Text"
     />
</svg>
